X: 37663
T: Snowflake, The
R: hornpipe
M: 4/4
K: Gmajor
|:D2|G2 GF GBdB|AGAB ABcB|ABcd efge|dgfe dcBA|
G2 GF GBdB|AGAB cdef|gfgd ecAF|GdcF G2:|
|:Bc|dedc Bdgf|edcB cdef|gfed cBAG|FdAF DBc^c|
dedc Bdgf|edcB cdef|gfgd ecAF|GdcF G2:|

